X: 10192
T: YANKEE DOODLE
C:
%R: march
B: Elias Howe "The Musician's Companion" Part 1 1842 p.19 #2
S: http://imslp.org/wiki/The_Musician's_Companion_(Howe,_Elias)
Z: 2015 John Chambers <jc:trillian.mit.edu>
M: 2/4
L: 1/8
K: D
% - - - - - - - - - - - - - - - - - - - - - - - - -
|:\
d2ef | dfec | d2ef | d2cA |\
d2ef | gfed | cABc | d2d2 ::\
dc BG | Bd=c2 | ABAG | FGA2 |\
dc BG | Bd=c2 | Adce | d2d2 :|
% - - - - - - - - - - - - - - - - - - - - - - - - -


